FINK
CUT[WOHL AUF KAMERADEN]
REG[Europa, Mitteleuropa, Deutschland]
KEY[F0561  16  C 4/4]
MEL[-5__  1__1_.11_.-5-3_.-1  -5__-5_.-5-5__
    3__  3__2_.34__3_.3  3__2__0__
    -5__  1__1_.11_.-5-3_.-1  -5__-5_.-5-5__
    3__  3__2_.34__3_.3  3__2__0__
    -5_.-7  2__2__2__1_.2  3__2_.21__
    5_.5  5__-5__-5__-6_-7_  1_.32_.-71__
    -5_.-7  2__2__2__1_.2  3__2_.21__
    5_.5  5__-5__-5__-6_-7_  1_.32_.-71__ //] >>
FCT[Soldaten -, Kriegs - Lied]
